packages/sources/assets/src/assets/flag-dz.svg

<svg width="28" height="20" viewBox="0 0 28 20" fill="none" xmlns="http://www.w3.org/2000/svg">
<rect x="0.25" y="0.25" width="27.5" height="19.5" rx="1.75" fill="white" stroke="#F5F5F5" stroke-width="0.5"/>
<mask id="mask0_503_3770" style="mask-type:alpha" maskUnits="userSpaceOnUse" x="0" y="0" width="28" height="20">
<rect x="0.25" y="0.25" width="27.5" height="19.5" rx="1.75" fill="white" stroke="white" stroke-width="0.5"/>
</mask>
<g mask="url(#mask0_503_3770)">
<path fill-rule="evenodd" clip-rule="evenodd" d="M0 20H14.6667V0H0V20Z" fill="#048345"/>
<path fill-rule="evenodd" clip-rule="evenodd" d="M17.3333 11.04L15.7659 12.1574L16.3442 10.3214L14.7972 9.17595L16.722 9.15862L17.3333 7.33333L17.9446 9.15862L19.8695 9.17595L18.3224 10.3214L18.9008 12.1574L17.3333 11.04Z" fill="#E81B42"/>
<path fill-rule="evenodd" clip-rule="evenodd" d="M17.68 14.3813C16.6519 15.3853 15.2702 16 13.7509 16C10.5748 16 8 13.3137 8 10C8 6.68629 10.5748 4 13.7509 4C15.2702 4 16.6519 4.61468 17.68 5.61867C16.9709 5.28113 16.1688 5.09091 15.3193 5.09091C12.4319 5.09091 10.0912 7.28878 10.0912 10C10.0912 12.7112 12.4319 14.9091 15.3193 14.9091C16.1688 14.9091 16.9709 14.7189 17.68 14.3813Z" fill="#E81B42"/>
</g>
</svg>

<svg width="28" height="20" fill="none" xmlns="http://www.w3.org/2000/svg"><rect x=".25" y=".25" width="27.5" height="19.5" rx="1.75" fill="#fff" stroke="#F5F5F5" stroke-width=".5"/><mask id="a" style="mask-type:alpha" maskUnits="userSpaceOnUse" x="0" y="0" width="28" height="20"><rect x=".25" y=".25" width="27.5" height="19.5" rx="1.75" fill="#fff" stroke="#fff" stroke-width=".5"/></mask><g mask="url(#a)" fill-rule="evenodd" clip-rule="evenodd"><path d="M0 20h14.667V0H0v20Z" fill="#048345"/><path d="m17.333 11.04-1.567 1.117.578-1.836-1.547-1.145 1.925-.017.611-1.826.612 1.826 1.924.017-1.547 1.145.579 1.836-1.568-1.117Z" fill="#E81B42"/><path d="M17.68 14.381A5.605 5.605 0 0 1 13.75 16C10.576 16 8 13.314 8 10s2.575-6 5.75-6c1.52 0 2.902.615 3.93 1.619a5.483 5.483 0 0 0-2.36-.528c-2.888 0-5.229 2.198-5.229 4.909s2.34 4.91 5.228 4.91c.85 0 1.652-.191 2.361-.529Z" fill="#E81B42"/></g></svg>
